static/fa/svgs/solid/filter.svg

<svg xmlns="http://www.w3.org/2000/svg" viewBox="0 0 512 512"><!--! Font Awesome Free 6.1.1 by @fontawesome - https://fontawesome.com License - https://fontawesome.com/license/free (Icons: CC BY 4.0, Fonts: SIL OFL 1.1, Code: MIT License) Copyright 2022 Fonticons, Inc.--><path d="M3.853 54.87A39.987 39.987 0 0 1 40 32h432c15.5 0 29.5 8.9 36.1 22.87 6.7 13.97 4.6 30.5-6 42.46L320 320.9V448c0 12.1-6.8 23.2-17.7 28.6-10.8 5.4-23.8 4.3-33.5-3l-64-48c-8.1-6-12.8-15.5-12.8-25.6v-79.1L9.042 97.33a40 40 0 0 1-5.188-42.46h-.001z"/></svg>

<svg xmlns="http://www.w3.org/2000/svg" viewBox="0 0 512 512"><!--! Font Awesome Free 6.1.1 by @fontawesome - https://fontawesome.com License - https://fontawesome.com/license/free (Icons: CC BY 4.0, Fonts: SIL OFL 1.1, Code: MIT License) Copyright 2022 Fonticons, Inc. --><path d="M3.853 54.87C10.47 40.9 24.54 32 40 32H472C487.5 32 501.5 40.9 508.1 54.87C514.8 68.84 512.7 85.37 502.1 97.33L320 320.9V448C320 460.1 313.2 471.2 302.3 476.6C291.5 482 278.5 480.9 268.8 473.6L204.8 425.6C196.7 419.6 192 410.1 192 400V320.9L9.042 97.33C-.745 85.37-2.765 68.84 3.854 54.87L3.853 54.87z"/></svg>
